assets/post/images/tree3.svg

<svg xmlns="http://www.w3.org/2000/svg" width="3313" height="1061" overflow="hidden"><defs><clipPath id="a"><path d="M140 63h3313v1061H140z"/></clipPath></defs><g clip-path="url(#a)" transform="translate(-140 -63)"><path fill="#d74514" fill-rule="evenodd" stroke="#d74514" stroke-miterlimit="8" stroke-width="9.167" d="M1787.5 146.5c0-43.631 35.37-79 79-79s79 35.369 79 79-35.37 79-79 79-79-35.37-79-79Z"/><text fill="#fff" font-family="Courier New,Courier New_MSFontService,sans-serif" font-size="83" font-weight="700" transform="translate(1841.76 169)">x</text><path fill="#d74514" fill-rule="evenodd" stroke="#d74514" stroke-miterlimit="8" stroke-width="9.167" d="M1537.5 396.5c0-43.63 35.37-79 79-79s79 35.37 79 79-35.37 79-79 79-79-35.37-79-79Z"/><text fill="#fff" font-family="Courier New,Courier New_MSFontService,sans-serif" font-size="83" font-weight="700" transform="translate(1591.72 419)">z</text><path fill="#d74514" fill-rule="evenodd" stroke="#d74514" stroke-miterlimit="8" stroke-width="9.167" d="M1380.5 699.5c0-43.631 35.15-79 78.5-79s78.5 35.369 78.5 79-35.15 79-78.5 79-78.5-35.369-78.5-79Z"/><text fill="#fff" font-family="Courier New,Courier New_MSFontService,sans-serif" font-size="83" font-weight="700" transform="translate(1433.89 722)">y</text><path fill="#fdefe8" fill-rule="evenodd" stroke="#d74514" stroke-miterlimit="8" stroke-width="9.167" d="M2052.5 396.5c0-43.63 35.37-79 79-79s79 35.37 79 79-35.37 79-79 79-79-35.37-79-79Z"/><text fill="#d74514" font-family="Courier New,Courier New_MSFontService,sans-serif" font-size="83" font-weight="700" transform="translate(2106.3 419)">A</text><path fill="#fdefe8" fill-rule="evenodd" stroke="#d74514" stroke-miterlimit="8" stroke-width="9.167" d="M1672.5 699.5c0-43.631 35.37-79 79-79s79 35.369 79 79-35.37 79-79 79-79-35.369-79-79Z"/><text fill="#d74514" font-family="Courier New,Courier New_MSFontService,sans-serif" font-size="83" font-weight="700" transform="translate(1726.43 722)">D</text><path fill="#fdefe8" fill-rule="evenodd" stroke="#d74514" stroke-miterlimit="8" stroke-width="9.167" d="M1276.5 1025.5c0-43.631 35.37-79 79-79s79 35.369 79 79-35.37 79-79 79-79-35.37-79-79Z"/><text fill="#d74514" font-family="Courier New,Courier New_MSFontService,sans-serif" font-size="83" font-weight="700" transform="translate(1330.13 1048)">B</text><path fill="#fdefe8" fill-rule="evenodd" stroke="#d74514" stroke-miterlimit="8" stroke-width="9.167" d="M1467.5 1025.5c0-43.631 35.37-79 79-79s79 35.369 79 79-35.37 79-79 79-79-35.37-79-79Z"/><text fill="#d74514" font-family="Courier New,Courier New_MSFontService,sans-serif" font-size="83" font-weight="700" transform="translate(1521.12 1048)">C</text><path fill="none" stroke="#000" stroke-miterlimit="8" stroke-width="9.167" d="M1672.5 339.893 1810.945 201.5m264.495 138.393L1922.5 201.5m-463 418.381L1561.526 451.5m189.884 168.381L1672.5 451.5m-317 495.494 47.962-191.494m142.468 191.494L1514.5 755.5"/><path fill="#d74514" fill-rule="evenodd" stroke="#d74514" stroke-miterlimit="8" stroke-width="9.167" d="M2887.5 147.5c0-43.631 35.37-79 79-79s79 35.369 79 79-35.37 79-79 79-79-35.37-79-79Z"/><text fill="#fff" font-family="Courier New,Courier New_MSFontService,sans-serif" font-size="83" font-weight="700" transform="translate(2941.53 170)">z</text><path fill="#d74514" fill-rule="evenodd" stroke="#d74514" stroke-miterlimit="8" stroke-width="9.167" d="M2637.5 397.5c0-43.63 35.37-79 79-79s79 35.37 79 79-35.37 79-79 79-79-35.37-79-79Z"/><text fill="#fff" font-family="Courier New,Courier New_MSFontService,sans-serif" font-size="83" font-weight="700" transform="translate(2691.49 420)">y</text><path fill="#fdefe8" fill-rule="evenodd" stroke="#d74514" stroke-miterlimit="8" stroke-width="9.167" d="M2479.5 700.5c0-43.63 35.37-79 79-79s79 35.37 79 79-35.37 79-79 79-79-35.369-79-79Z"/><text fill="#d74514" font-family="Courier New,Courier New_MSFontService,sans-serif" font-size="83" font-weight="700" transform="translate(2533.66 723)">B</text><path fill="#d74514" fill-rule="evenodd" stroke="#d74514" stroke-miterlimit="8" stroke-width="9.167" d="M3152.5 397.5c0-43.63 35.37-79 79-79s79 35.37 79 79-35.37 79-79 79-79-35.37-79-79Z"/><text fill="#fff" font-family="Courier New,Courier New_MSFontService,sans-serif" font-size="83" font-weight="700" transform="translate(3206.07 420)">x</text><path fill="#fdefe8" fill-rule="evenodd" stroke="#d74514" stroke-miterlimit="8" stroke-width="9.167" d="M2772.5 700.5c0-43.63 35.37-79 79-79s79 35.37 79 79-35.37 79-79 79-79-35.369-79-79Z"/><text fill="#d74514" font-family="Courier New,Courier New_MSFontService,sans-serif" font-size="83" font-weight="700" transform="translate(2826.2 723)">C</text><path fill="none" stroke="#000" stroke-miterlimit="8" stroke-width="9.167" d="M2772.5 340.893 2910.945 202.5m264.495 138.393L3022.5 202.5m-464 418.381L2660.526 452.5m190.884 168.381L2772.5 452.5"/><path fill="#fdefe8" fill-rule="evenodd" stroke="#d74514" stroke-miterlimit="8" stroke-width="9.167" d="M2998.5 699.5c0-43.631 35.37-79 79-79s79 35.369 79 79-35.37 79-79 79-79-35.369-79-79Z"/><text fill="#d74514" font-family="Courier New,Courier New_MSFontService,sans-serif" font-size="83" font-weight="700" transform="translate(3052.21 722)">D</text><path fill="#fdefe8" fill-rule="evenodd" stroke="#d74514" stroke-miterlimit="8" stroke-width="9.167" d="M3290.5 699.5c0-43.631 35.37-79 79-79s79 35.369 79 79-35.37 79-79 79-79-35.369-79-79Z"/><text fill="#d74514" font-family="Courier New,Courier New_MSFontService,sans-serif" font-size="83" font-weight="700" transform="translate(3344.74 722)">A</text><path fill="none" stroke="#000" stroke-miterlimit="8" stroke-width="9.167" d="M3077.5 619.881 3179.526 451.5m189.884 168.381L3290.5 451.5"/><path fill="#d74514" fill-rule="evenodd" d="M2278 507.5h90V451l90 113-90 113v-56.5h-90Z"/><path fill="#d74514" fill-rule="evenodd" stroke="#d74514" stroke-miterlimit="8" stroke-width="9.167" d="M551.5 146.5c0-43.631 35.369-79 79-79s79 35.369 79 79-35.37 79-79 79-79-35.37-79-79Z"/><text fill="#fff" font-family="Courier New,Courier New_MSFontService,sans-serif" font-size="83" font-weight="700" transform="translate(605.698 169)">x</text><path fill="#d74514" fill-rule="evenodd" stroke="#d74514" stroke-miterlimit="8" stroke-width="9.167" d="M301.5 396.5c0-43.63 35.37-79 79-79s79 35.37 79 79-35.369 79-79 79-79-35.37-79-79Z"/><text fill="#fff" font-family="Courier New,Courier New_MSFontService,sans-serif" font-size="83" font-weight="700" transform="translate(355.653 419)">y</text><path fill="#fdefe8" fill-rule="evenodd" stroke="#d74514" stroke-miterlimit="8" stroke-width="9.167" d="M144.5 699.5c0-43.631 35.146-79 78.5-79s78.5 35.369 78.5 79-35.146 79-78.5 79-78.5-35.369-78.5-79Z"/><text fill="#d74514" font-family="Courier New,Courier New_MSFontService,sans-serif" font-size="83" font-weight="700" transform="translate(197.827 722)">B</text><path fill="#fdefe8" fill-rule="evenodd" stroke="#d74514" stroke-miterlimit="8" stroke-width="9.167" d="M816.5 396.5c0-43.63 35.369-79 79-79s79 35.37 79 79-35.37 79-79 79-79-35.37-79-79Z"/><text fill="#d74514" font-family="Courier New,Courier New_MSFontService,sans-serif" font-size="83" font-weight="700" transform="translate(870.236 419)">A</text><path fill="#d74514" fill-rule="evenodd" stroke="#d74514" stroke-miterlimit="8" stroke-width="9.167" d="M436.5 699.5c0-43.631 35.37-79 79-79s79 35.369 79 79-35.37 79-79 79-79-35.369-79-79Z"/><text fill="#fff" font-family="Courier New,Courier New_MSFontService,sans-serif" font-size="83" font-weight="700" transform="translate(490.366 722)">z</text><path fill="#fdefe8" fill-rule="evenodd" stroke="#d74514" stroke-miterlimit="8" stroke-width="9.167" d="M330.5 1025.5c0-43.631 35.369-79 79-79s79 35.369 79 79-35.37 79-79 79-79-35.37-79-79Z"/><text fill="#d74514" font-family="Courier New,Courier New_MSFontService,sans-serif" font-size="83" font-weight="700" transform="translate(384.306 1048)">C</text><path fill="#fdefe8" fill-rule="evenodd" stroke="#d74514" stroke-miterlimit="8" stroke-width="9.167" d="M521.5 1025.5c0-43.631 35.369-79 79-79s79 35.369 79 79-35.369 79-79 79-79-35.37-79-79Z"/><text fill="#d74514" font-family="Courier New,Courier New_MSFontService,sans-serif" font-size="83" font-weight="700" transform="translate(575.294 1048)">D</text><path fill="none" stroke="#000" stroke-miterlimit="8" stroke-width="9.167" d="M436.5 339.893 574.945 201.5m264.493 138.393L686.5 201.5m-464 418.381L324.526 451.5m190.887 168.381L436.5 451.5m-27 495.494L457.462 755.5m143.464 191.494L569.5 755.5"/><path fill="#d74514" fill-rule="evenodd" d="M1077 529.5h90V473l90 113-90 113v-56.5h-90Z"/></g></svg>

<svg width="3313" height="1061" xmlns="http://www.w3.org/2000/svg" xmlns:xlink="http://www.w3.org/1999/xlink" overflow="hidden"><defs><clipPath id="clip0"><rect x="140" y="63" width="3313" height="1061"/></clipPath></defs><g clip-path="url(#clip0)" transform="translate(-140 -63)"><path d="M1787.5 146.5C1787.5 102.869 1822.87 67.4999 1866.5 67.4999 1910.13 67.4999 1945.5 102.869 1945.5 146.5 1945.5 190.13 1910.13 225.5 1866.5 225.5 1822.87 225.5 1787.5 190.13 1787.5 146.5Z" stroke="#D74514" stroke-width="9.16667" stroke-miterlimit="8" fill="#D74514" fill-rule="evenodd"/><text fill="#FFFFFF" font-family="Courier New,Courier New_MSFontService,sans-serif" font-weight="700" font-size="83" transform="matrix(1 0 0 1 1841.76 169)">x</text><path d="M1537.5 396.5C1537.5 352.87 1572.87 317.5 1616.5 317.5 1660.13 317.5 1695.5 352.87 1695.5 396.5 1695.5 440.13 1660.13 475.5 1616.5 475.5 1572.87 475.5 1537.5 440.13 1537.5 396.5Z" stroke="#D74514" stroke-width="9.16667" stroke-miterlimit="8" fill="#D74514" fill-rule="evenodd"/><text fill="#FFFFFF" font-family="Courier New,Courier New_MSFontService,sans-serif" font-weight="700" font-size="83" transform="matrix(1 0 0 1 1591.72 419)">z</text><path d="M1380.5 699.5C1380.5 655.869 1415.65 620.5 1459 620.5 1502.35 620.5 1537.5 655.869 1537.5 699.5 1537.5 743.131 1502.35 778.5 1459 778.5 1415.65 778.5 1380.5 743.131 1380.5 699.5Z" stroke="#D74514" stroke-width="9.16667" stroke-miterlimit="8" fill="#D74514" fill-rule="evenodd"/><text fill="#FFFFFF" font-family="Courier New,Courier New_MSFontService,sans-serif" font-weight="700" font-size="83" transform="matrix(1 0 0 1 1433.89 722)">y</text><path d="M2052.5 396.5C2052.5 352.87 2087.87 317.5 2131.5 317.5 2175.13 317.5 2210.5 352.87 2210.5 396.5 2210.5 440.13 2175.13 475.5 2131.5 475.5 2087.87 475.5 2052.5 440.13 2052.5 396.5Z" stroke="#D74514" stroke-width="9.16667" stroke-miterlimit="8" fill="#FDEFE8" fill-rule="evenodd"/><text fill="#D74514" font-family="Courier New,Courier New_MSFontService,sans-serif" font-weight="700" font-size="83" transform="matrix(1 0 0 1 2106.3 419)">A</text><path d="M1672.5 699.5C1672.5 655.869 1707.87 620.5 1751.5 620.5 1795.13 620.5 1830.5 655.869 1830.5 699.5 1830.5 743.131 1795.13 778.5 1751.5 778.5 1707.87 778.5 1672.5 743.131 1672.5 699.5Z" stroke="#D74514" stroke-width="9.16667" stroke-miterlimit="8" fill="#FDEFE8" fill-rule="evenodd"/><text fill="#D74514" font-family="Courier New,Courier New_MSFontService,sans-serif" font-weight="700" font-size="83" transform="matrix(1 0 0 1 1726.43 722)">D</text><path d="M1276.5 1025.5C1276.5 981.869 1311.87 946.5 1355.5 946.5 1399.13 946.5 1434.5 981.869 1434.5 1025.5 1434.5 1069.13 1399.13 1104.5 1355.5 1104.5 1311.87 1104.5 1276.5 1069.13 1276.5 1025.5Z" stroke="#D74514" stroke-width="9.16667" stroke-miterlimit="8" fill="#FDEFE8" fill-rule="evenodd"/><text fill="#D74514" font-family="Courier New,Courier New_MSFontService,sans-serif" font-weight="700" font-size="83" transform="matrix(1 0 0 1 1330.13 1048)">B</text><path d="M1467.5 1025.5C1467.5 981.869 1502.87 946.5 1546.5 946.5 1590.13 946.5 1625.5 981.869 1625.5 1025.5 1625.5 1069.13 1590.13 1104.5 1546.5 1104.5 1502.87 1104.5 1467.5 1069.13 1467.5 1025.5Z" stroke="#D74514" stroke-width="9.16667" stroke-miterlimit="8" fill="#FDEFE8" fill-rule="evenodd"/><text fill="#D74514" font-family="Courier New,Courier New_MSFontService,sans-serif" font-weight="700" font-size="83" transform="matrix(1 0 0 1 1521.12 1048)">C</text><path d="M0 0 138.445 138.393" stroke="#000000" stroke-width="9.16667" stroke-miterlimit="8" fill="none" fill-rule="evenodd" transform="matrix(1 0 0 -1 1672.5 339.893)"/><path d="M2075.44 339.893 1922.5 201.5" stroke="#000000" stroke-width="9.16667" stroke-miterlimit="8" fill="none" fill-rule="evenodd"/><path d="M0 0 102.026 168.381" stroke="#000000" stroke-width="9.16667" stroke-miterlimit="8" fill="none" fill-rule="evenodd" transform="matrix(1 0 0 -1 1459.5 619.881)"/><path d="M1751.41 619.881 1672.5 451.5" stroke="#000000" stroke-width="9.16667" stroke-miterlimit="8" fill="none" fill-rule="evenodd"/><path d="M0 0 47.9619 191.494" stroke="#000000" stroke-width="9.16667" stroke-miterlimit="8" fill="none" fill-rule="evenodd" transform="matrix(1 0 0 -1 1355.5 946.994)"/><path d="M1545.93 946.994 1514.5 755.5" stroke="#000000" stroke-width="9.16667" stroke-miterlimit="8" fill="none" fill-rule="evenodd"/><path d="M2887.5 147.5C2887.5 103.869 2922.87 68.4999 2966.5 68.4999 3010.13 68.4999 3045.5 103.869 3045.5 147.5 3045.5 191.13 3010.13 226.5 2966.5 226.5 2922.87 226.5 2887.5 191.13 2887.5 147.5Z" stroke="#D74514" stroke-width="9.16667" stroke-miterlimit="8" fill="#D74514" fill-rule="evenodd"/><text fill="#FFFFFF" font-family="Courier New,Courier New_MSFontService,sans-serif" font-weight="700" font-size="83" transform="matrix(1 0 0 1 2941.53 170)">z</text><path d="M2637.5 397.5C2637.5 353.87 2672.87 318.5 2716.5 318.5 2760.13 318.5 2795.5 353.87 2795.5 397.5 2795.5 441.13 2760.13 476.5 2716.5 476.5 2672.87 476.5 2637.5 441.13 2637.5 397.5Z" stroke="#D74514" stroke-width="9.16667" stroke-miterlimit="8" fill="#D74514" fill-rule="evenodd"/><text fill="#FFFFFF" font-family="Courier New,Courier New_MSFontService,sans-serif" font-weight="700" font-size="83" transform="matrix(1 0 0 1 2691.49 420)">y</text><path d="M2479.5 700.5C2479.5 656.87 2514.87 621.5 2558.5 621.5 2602.13 621.5 2637.5 656.87 2637.5 700.5 2637.5 744.131 2602.13 779.5 2558.5 779.5 2514.87 779.5 2479.5 744.131 2479.5 700.5Z" stroke="#D74514" stroke-width="9.16667" stroke-miterlimit="8" fill="#FDEFE8" fill-rule="evenodd"/><text fill="#D74514" font-family="Courier New,Courier New_MSFontService,sans-serif" font-weight="700" font-size="83" transform="matrix(1 0 0 1 2533.66 723)">B</text><path d="M3152.5 397.5C3152.5 353.87 3187.87 318.5 3231.5 318.5 3275.13 318.5 3310.5 353.87 3310.5 397.5 3310.5 441.13 3275.13 476.5 3231.5 476.5 3187.87 476.5 3152.5 441.13 3152.5 397.5Z" stroke="#D74514" stroke-width="9.16667" stroke-miterlimit="8" fill="#D74514" fill-rule="evenodd"/><text fill="#FFFFFF" font-family="Courier New,Courier New_MSFontService,sans-serif" font-weight="700" font-size="83" transform="matrix(1 0 0 1 3206.07 420)">x</text><path d="M2772.5 700.5C2772.5 656.87 2807.87 621.5 2851.5 621.5 2895.13 621.5 2930.5 656.87 2930.5 700.5 2930.5 744.131 2895.13 779.5 2851.5 779.5 2807.87 779.5 2772.5 744.131 2772.5 700.5Z" stroke="#D74514" stroke-width="9.16667" stroke-miterlimit="8" fill="#FDEFE8" fill-rule="evenodd"/><text fill="#D74514" font-family="Courier New,Courier New_MSFontService,sans-serif" font-weight="700" font-size="83" transform="matrix(1 0 0 1 2826.2 723)">C</text><path d="M0 0 138.445 138.393" stroke="#000000" stroke-width="9.16667" stroke-miterlimit="8" fill="none" fill-rule="evenodd" transform="matrix(1 0 0 -1 2772.5 340.893)"/><path d="M3175.44 340.893 3022.5 202.5" stroke="#000000" stroke-width="9.16667" stroke-miterlimit="8" fill="none" fill-rule="evenodd"/><path d="M0 0 102.026 168.381" stroke="#000000" stroke-width="9.16667" stroke-miterlimit="8" fill="none" fill-rule="evenodd" transform="matrix(1 0 0 -1 2558.5 620.881)"/><path d="M2851.41 620.881 2772.5 452.5" stroke="#000000" stroke-width="9.16667" stroke-miterlimit="8" fill="none" fill-rule="evenodd"/><path d="M2998.5 699.5C2998.5 655.869 3033.87 620.5 3077.5 620.5 3121.13 620.5 3156.5 655.869 3156.5 699.5 3156.5 743.131 3121.13 778.5 3077.5 778.5 3033.87 778.5 2998.5 743.131 2998.5 699.5Z" stroke="#D74514" stroke-width="9.16667" stroke-miterlimit="8" fill="#FDEFE8" fill-rule="evenodd"/><text fill="#D74514" font-family="Courier New,Courier New_MSFontService,sans-serif" font-weight="700" font-size="83" transform="matrix(1 0 0 1 3052.21 722)">D</text><path d="M3290.5 699.5C3290.5 655.869 3325.87 620.5 3369.5 620.5 3413.13 620.5 3448.5 655.869 3448.5 699.5 3448.5 743.131 3413.13 778.5 3369.5 778.5 3325.87 778.5 3290.5 743.131 3290.5 699.5Z" stroke="#D74514" stroke-width="9.16667" stroke-miterlimit="8" fill="#FDEFE8" fill-rule="evenodd"/><text fill="#D74514" font-family="Courier New,Courier New_MSFontService,sans-serif" font-weight="700" font-size="83" transform="matrix(1 0 0 1 3344.74 722)">A</text><path d="M0 0 102.026 168.381" stroke="#000000" stroke-width="9.16667" stroke-miterlimit="8" fill="none" fill-rule="evenodd" transform="matrix(1 0 0 -1 3077.5 619.881)"/><path d="M3369.41 619.881 3290.5 451.5" stroke="#000000" stroke-width="9.16667" stroke-miterlimit="8" fill="none" fill-rule="evenodd"/><path d="M2278 507.5 2368 507.5 2368 451 2458 564 2368 677 2368 620.5 2278 620.5Z" fill="#D74514" fill-rule="evenodd"/><path d="M551.5 146.5C551.5 102.869 586.869 67.4999 630.5 67.4999 674.13 67.4999 709.5 102.869 709.5 146.5 709.5 190.13 674.13 225.5 630.5 225.5 586.869 225.5 551.5 190.13 551.5 146.5Z" stroke="#D74514" stroke-width="9.16667" stroke-miterlimit="8" fill="#D74514" fill-rule="evenodd"/><text fill="#FFFFFF" font-family="Courier New,Courier New_MSFontService,sans-serif" font-weight="700" font-size="83" transform="matrix(1 0 0 1 605.698 169)">x</text><path d="M301.5 396.5C301.5 352.87 336.87 317.5 380.5 317.5 424.131 317.5 459.5 352.87 459.5 396.5 459.5 440.13 424.131 475.5 380.5 475.5 336.87 475.5 301.5 440.13 301.5 396.5Z" stroke="#D74514" stroke-width="9.16667" stroke-miterlimit="8" fill="#D74514" fill-rule="evenodd"/><text fill="#FFFFFF" font-family="Courier New,Courier New_MSFontService,sans-serif" font-weight="700" font-size="83" transform="matrix(1 0 0 1 355.653 419)">y</text><path d="M144.5 699.5C144.5 655.869 179.646 620.5 223 620.5 266.354 620.5 301.5 655.869 301.5 699.5 301.5 743.131 266.354 778.5 223 778.5 179.646 778.5 144.5 743.131 144.5 699.5Z" stroke="#D74514" stroke-width="9.16667" stroke-miterlimit="8" fill="#FDEFE8" fill-rule="evenodd"/><text fill="#D74514" font-family="Courier New,Courier New_MSFontService,sans-serif" font-weight="700" font-size="83" transform="matrix(1 0 0 1 197.827 722)">B</text><path d="M816.5 396.5C816.5 352.87 851.869 317.5 895.5 317.5 939.13 317.5 974.5 352.87 974.5 396.5 974.5 440.13 939.13 475.5 895.5 475.5 851.869 475.5 816.5 440.13 816.5 396.5Z" stroke="#D74514" stroke-width="9.16667" stroke-miterlimit="8" fill="#FDEFE8" fill-rule="evenodd"/><text fill="#D74514" font-family="Courier New,Courier New_MSFontService,sans-serif" font-weight="700" font-size="83" transform="matrix(1 0 0 1 870.236 419)">A</text><path d="M436.5 699.5C436.5 655.869 471.87 620.5 515.5 620.5 559.13 620.5 594.5 655.869 594.5 699.5 594.5 743.131 559.13 778.5 515.5 778.5 471.87 778.5 436.5 743.131 436.5 699.5Z" stroke="#D74514" stroke-width="9.16667" stroke-miterlimit="8" fill="#D74514" fill-rule="evenodd"/><text fill="#FFFFFF" font-family="Courier New,Courier New_MSFontService,sans-serif" font-weight="700" font-size="83" transform="matrix(1 0 0 1 490.366 722)">z</text><path d="M330.5 1025.5C330.5 981.869 365.869 946.5 409.5 946.5 453.13 946.5 488.5 981.869 488.5 1025.5 488.5 1069.13 453.13 1104.5 409.5 1104.5 365.869 1104.5 330.5 1069.13 330.5 1025.5Z" stroke="#D74514" stroke-width="9.16667" stroke-miterlimit="8" fill="#FDEFE8" fill-rule="evenodd"/><text fill="#D74514" font-family="Courier New,Courier New_MSFontService,sans-serif" font-weight="700" font-size="83" transform="matrix(1 0 0 1 384.306 1048)">C</text><path d="M521.5 1025.5C521.5 981.869 556.869 946.5 600.5 946.5 644.131 946.5 679.5 981.869 679.5 1025.5 679.5 1069.13 644.131 1104.5 600.5 1104.5 556.869 1104.5 521.5 1069.13 521.5 1025.5Z" stroke="#D74514" stroke-width="9.16667" stroke-miterlimit="8" fill="#FDEFE8" fill-rule="evenodd"/><text fill="#D74514" font-family="Courier New,Courier New_MSFontService,sans-serif" font-weight="700" font-size="83" transform="matrix(1 0 0 1 575.294 1048)">D</text><path d="M0 0 138.445 138.393" stroke="#000000" stroke-width="9.16667" stroke-miterlimit="8" fill="none" fill-rule="evenodd" transform="matrix(1 0 0 -1 436.5 339.893)"/><path d="M839.438 339.893 686.5 201.5" stroke="#000000" stroke-width="9.16667" stroke-miterlimit="8" fill="none" fill-rule="evenodd"/><path d="M0 0 102.026 168.381" stroke="#000000" stroke-width="9.16667" stroke-miterlimit="8" fill="none" fill-rule="evenodd" transform="matrix(1 0 0 -1 222.5 619.881)"/><path d="M515.413 619.881 436.5 451.5" stroke="#000000" stroke-width="9.16667" stroke-miterlimit="8" fill="none" fill-rule="evenodd"/><path d="M0 0 47.9619 191.494" stroke="#000000" stroke-width="9.16667" stroke-miterlimit="8" fill="none" fill-rule="evenodd" transform="matrix(1 0 0 -1 409.5 946.994)"/><path d="M600.926 946.994 569.5 755.5" stroke="#000000" stroke-width="9.16667" stroke-miterlimit="8" fill="none" fill-rule="evenodd"/><path d="M1077 529.5 1167 529.5 1167 473 1257 586 1167 699 1167 642.5 1077 642.5Z" fill="#D74514" fill-rule="evenodd"/></g></svg>
